assets/images/v4/icon-first.svg

<svg fill="none" height="17" viewBox="0 0 17 17" width="17" xmlns="http://www.w3.org/2000/svg"><g fill="#333"><path d="m12.5016 12.1543.94-.94-3.0533-3.06 3.0533-3.06-.94-.94-4.00001 4z"/><path d="m8.10822 12.1543.94-.94-3.05334-3.06 3.05334-3.06-.94-.94-4 4z"/></g></svg>

<svg width="17" height="17" viewBox="0 0 17 17" fill="none" xmlns="http://www.w3.org/2000/svg">
<path d="M12.5016 12.1543L13.4416 11.2143L10.3883 8.1543L13.4416 5.0943L12.5016 4.1543L8.50159 8.1543L12.5016 12.1543Z" fill="#333333"/>
<path d="M8.10822 12.1543L9.04822 11.2143L5.99488 8.1543L9.04822 5.0943L8.10822 4.1543L4.10822 8.1543L8.10822 12.1543Z" fill="#333333"/>
</svg>
